dist/img/chat.svg

<svg width="56" height="57" viewBox="0 0 56 57" fill="none" xmlns="http://www.w3.org/2000/svg">
<path fill-rule="evenodd" clip-rule="evenodd" d="M38.1624 3.58625C37.9164 3.58625 37.683 3.44068 37.5826 3.19974L36.782 1.26217C36.649 0.940914 36.7996 0.574482 37.1208 0.441462C37.4396 0.310952 37.8085 0.461541 37.9415 0.782796L38.7422 2.72037C38.8752 3.03911 38.7221 3.40806 38.4033 3.53857C38.323 3.57119 38.2427 3.58625 38.1624 3.58625Z" fill="#FBBC02"/>
<path fill-rule="evenodd" clip-rule="evenodd" d="M42.1054 3.51379C42.0401 3.51379 41.9749 3.50375 41.9121 3.48367C41.5833 3.37826 41.4001 3.02438 41.5081 2.69559L42.1506 0.700296C42.256 0.369001 42.6124 0.188295 42.9412 0.293707C43.2699 0.401629 43.4506 0.755511 43.3452 1.0843L42.7027 3.07959C42.6149 3.34563 42.3689 3.51379 42.1054 3.51379Z" fill="#FBBC02"/>
<path fill-rule="evenodd" clip-rule="evenodd" d="M15.0118 6.12111H10.2432C9.89682 6.12111 9.61572 5.84002 9.61572 5.49366C9.61572 5.14731 9.89682 4.86621 10.2432 4.86621H15.0118C15.3582 4.86621 15.6393 5.14731 15.6393 5.49366C15.6393 5.84002 15.3582 6.12111 15.0118 6.12111Z" fill="black"/>
<path fill-rule="evenodd" clip-rule="evenodd" d="M12.6275 8.50596C12.2811 8.50596 12 8.22486 12 7.87851V3.10987C12 2.76352 12.2811 2.48242 12.6275 2.48242C12.9738 2.48242 13.2549 2.76352 13.2549 3.10987V7.87851C13.2549 8.22486 12.9738 8.50596 12.6275 8.50596Z" fill="black"/>
<path fill-rule="evenodd" clip-rule="evenodd" d="M45.4583 44.5791C44.2561 44.5791 43.2798 45.5579 43.2798 46.7576C43.2798 47.9598 44.2561 48.9361 45.4583 48.9361C46.658 48.9361 47.6368 47.9598 47.6368 46.7576C47.6368 45.5579 46.658 44.5791 45.4583 44.5791ZM45.4583 50.1911C43.5634 50.1911 42.0249 48.65 42.0249 46.7576C42.0249 44.8652 43.5634 43.3242 45.4583 43.3242C47.3507 43.3242 48.8917 44.8652 48.8917 46.7576C48.8917 48.65 47.3507 50.1911 45.4583 50.1911Z" fill="#FBBC02"/>
<path fill-rule="evenodd" clip-rule="evenodd" d="M25.0262 55.5872C24.6924 55.5872 24.4163 55.3236 24.4013 54.9873L24.3109 52.9945C24.2958 52.6482 24.5644 52.3545 24.9108 52.3395C25.2521 52.3244 25.5482 52.593 25.5658 52.9393L25.6537 54.9321C25.6687 55.2785 25.4027 55.5721 25.0563 55.5872C25.0463 55.5872 25.0362 55.5872 25.0262 55.5872Z" fill="black"/>
<path fill-rule="evenodd" clip-rule="evenodd" d="M16.9897 50.1139C16.799 50.1139 16.6133 50.0286 16.4903 49.8655C16.2794 49.5894 16.3322 49.1978 16.6082 48.987L18.1969 47.7798C18.473 47.569 18.8671 47.6242 19.0754 47.8978C19.2862 48.1738 19.2335 48.5679 18.9574 48.7787L17.3687 49.9859C17.2558 50.0713 17.1227 50.1139 16.9897 50.1139Z" fill="black"/>
<path fill-rule="evenodd" clip-rule="evenodd" d="M31.9181 49.3405C31.8077 49.3405 31.6948 49.3104 31.5919 49.2501L29.8877 48.2111C29.5915 48.0304 29.4987 47.6464 29.6794 47.3502C29.8576 47.0541 30.2441 46.9587 30.5403 47.1394L32.2444 48.1759C32.5406 48.3567 32.6359 48.7432 32.4552 49.0393C32.3373 49.2326 32.129 49.3405 31.9181 49.3405Z" fill="black"/>
<path fill-rule="evenodd" clip-rule="evenodd" d="M20.157 42.9055H12.487C10.6975 42.9055 8.95069 43.4501 7.47743 44.4716L1.06738 48.909V23.5198C1.06738 22.1795 2.15413 21.0928 3.49437 21.0928H22.9228V27.8065C22.9228 29.1442 24.0095 30.2335 25.3523 30.2335H32.6859V40.4785C32.6859 41.8188 31.6017 42.9055 30.259 42.9055H20.157Z" fill="white"/>
<path fill-rule="evenodd" clip-rule="evenodd" d="M1.06739 49.5359C0.967001 49.5359 0.866609 49.5108 0.776256 49.4632C0.570451 49.3552 0.439941 49.1394 0.439941 48.9085V23.5193C0.439941 21.8327 1.8103 20.4648 3.49438 20.4648H22.9228C23.2692 20.4648 23.5503 20.7434 23.5503 21.0923V27.806C23.5503 28.7974 24.3584 29.6056 25.3523 29.6056H32.686C33.0323 29.6056 33.3134 29.8842 33.3134 30.233V40.4781C33.3134 42.1621 31.943 43.5325 30.259 43.5325H26.7653C26.419 43.5325 26.1379 43.2514 26.1379 42.905C26.1379 42.5562 26.419 42.2776 26.7653 42.2776H30.259C31.2503 42.2776 32.0585 41.4694 32.0585 40.4781V30.8605H25.3523C23.6657 30.8605 22.2953 29.4901 22.2953 27.806V21.7197H3.49438C2.503 21.7197 1.69485 22.5254 1.69485 23.5193V47.7088L7.12105 43.9541C8.70725 42.8573 10.562 42.2776 12.487 42.2776H20.157C20.5033 42.2776 20.7844 42.5562 20.7844 42.905C20.7844 43.2514 20.5033 43.5325 20.157 43.5325H12.487C10.818 43.5325 9.20921 44.0344 7.83384 44.9857L1.42379 49.423C1.31837 49.4983 1.19288 49.5359 1.06739 49.5359Z" fill="black"/>
<path fill-rule="evenodd" clip-rule="evenodd" d="M43.4079 8.41797H52.1144C53.4572 8.41797 54.5414 9.50472 54.5414 10.845V36.2342L48.1314 31.7993C46.6606 30.7778 44.9113 30.2332 43.1218 30.2332H32.686V23.5195C32.686 22.1792 31.6018 21.0925 30.259 21.0925H22.9229V10.845C22.9229 9.50472 24.0096 8.41797 25.3523 8.41797H43.4079Z" fill="white"/>
<path fill-rule="evenodd" clip-rule="evenodd" d="M54.5414 36.8611C54.4159 36.8611 54.2904 36.826 54.185 36.7507L47.775 32.3134C46.4021 31.3622 44.7933 30.8602 43.1218 30.8602H32.686C32.3397 30.8602 32.0586 30.5791 32.0586 30.2327V23.519C32.0586 22.5251 31.2504 21.7195 30.259 21.7195H22.9229C22.5765 21.7195 22.2954 21.4384 22.2954 21.092V10.8445C22.2954 9.16039 23.6658 7.79004 25.3524 7.79004H37.0506C37.3969 7.79004 37.678 8.07114 37.678 8.41749C37.678 8.76635 37.3969 9.04494 37.0506 9.04494H25.3524C24.3585 9.04494 23.5503 9.8531 23.5503 10.8445V20.4646H30.259C31.9431 20.4646 33.3135 21.8324 33.3135 23.519V29.6053H43.1218C45.0493 29.6053 46.9041 30.1851 48.4878 31.2818L53.914 35.0365V10.8445C53.914 9.8531 53.1058 9.04494 52.1144 9.04494H43.4079C43.0616 9.04494 42.7805 8.76635 42.7805 8.41749C42.7805 8.07114 43.0616 7.79004 43.4079 7.79004H52.1144C53.7985 7.79004 55.1689 9.16039 55.1689 10.8445V36.2337C55.1689 36.4671 55.0384 36.6829 54.8326 36.7909C54.7422 36.8386 54.6418 36.8611 54.5414 36.8611Z" fill="black"/>
<path fill-rule="evenodd" clip-rule="evenodd" d="M32.8792 23.434V30.4138H25.2544C23.8589 30.4138 22.7295 29.2819 22.7295 27.889V20.9092H30.3568C31.7523 20.9092 32.8792 22.0386 32.8792 23.434Z" fill="#FBBC02"/>
<path fill-rule="evenodd" clip-rule="evenodd" d="M23.357 21.5371V27.8895C23.357 28.936 24.2078 29.7869 25.2544 29.7869H32.2517V23.4345C32.2517 22.388 31.4034 21.5371 30.3568 21.5371H23.357ZM32.8792 31.0418H25.2544C23.5151 31.0418 22.1021 29.6288 22.1021 27.8895V20.9097C22.1021 20.5633 22.3806 20.2822 22.7295 20.2822H30.3568C32.0936 20.2822 33.5066 21.6952 33.5066 23.4345V30.4143C33.5066 30.7607 33.228 31.0418 32.8792 31.0418Z" fill="#FBBC02"/>
<path fill-rule="evenodd" clip-rule="evenodd" d="M18.985 26.8047H6.27027C5.92392 26.8047 5.64282 26.5261 5.64282 26.1773C5.64282 25.8309 5.92392 25.5498 6.27027 25.5498H18.985C19.3313 25.5498 19.6124 25.8309 19.6124 26.1773C19.6124 26.5261 19.3313 26.8047 18.985 26.8047Z" fill="black"/>
<path fill-rule="evenodd" clip-rule="evenodd" d="M18.985 31.6992H6.27027C5.92392 31.6992 5.64282 31.4207 5.64282 31.0718C5.64282 30.7254 5.92392 30.4443 6.27027 30.4443H18.985C19.3313 30.4443 19.6124 30.7254 19.6124 31.0718C19.6124 31.4207 19.3313 31.6992 18.985 31.6992Z" fill="black"/>
<path fill-rule="evenodd" clip-rule="evenodd" d="M27.4354 36.5928H22.1648C21.8185 36.5928 21.5374 36.3142 21.5374 35.9653C21.5374 35.619 21.8185 35.3379 22.1648 35.3379H27.4354C27.7818 35.3379 28.0629 35.619 28.0629 35.9653C28.0629 36.3142 27.7818 36.5928 27.4354 36.5928Z" fill="black"/>
<path fill-rule="evenodd" clip-rule="evenodd" d="M14.8864 36.5928H6.27027C5.92392 36.5928 5.64282 36.3142 5.64282 35.9653C5.64282 35.619 5.92392 35.3379 6.27027 35.3379H14.8864C15.2328 35.3379 15.5139 35.619 15.5139 35.9653C15.5139 36.3142 15.2328 36.5928 14.8864 36.5928Z" fill="black"/>
<path fill-rule="evenodd" clip-rule="evenodd" d="M49.7652 24.1699H37.0505C36.7017 24.1699 36.4231 23.8914 36.4231 23.5425C36.4231 23.1961 36.7017 22.915 37.0505 22.915H49.7652C50.1116 22.915 50.3927 23.1961 50.3927 23.5425C50.3927 23.8914 50.1116 24.1699 49.7652 24.1699Z" fill="black"/>
<path fill-rule="evenodd" clip-rule="evenodd" d="M49.7652 19.2754H37.0505C36.7017 19.2754 36.4231 18.9968 36.4231 18.648C36.4231 18.3016 36.7017 18.0205 37.0505 18.0205H49.7652C50.1116 18.0205 50.3927 18.3016 50.3927 18.648C50.3927 18.9968 50.1116 19.2754 49.7652 19.2754Z" fill="black"/>
<path fill-rule="evenodd" clip-rule="evenodd" d="M33.8705 14.3809H28.5999C28.2535 14.3809 27.9724 14.1023 27.9724 13.7534C27.9724 13.4071 28.2535 13.126 28.5999 13.126H33.8705C34.2168 13.126 34.4979 13.4071 34.4979 13.7534C34.4979 14.1023 34.2168 14.3809 33.8705 14.3809Z" fill="black"/>
<path fill-rule="evenodd" clip-rule="evenodd" d="M49.7651 14.3809H41.1489C40.8026 14.3809 40.5215 14.1023 40.5215 13.7534C40.5215 13.4071 40.8026 13.126 41.1489 13.126H49.7651C50.1115 13.126 50.3926 13.4071 50.3926 13.7534C50.3926 14.1023 50.1115 14.3809 49.7651 14.3809Z" fill="black"/>
</svg>

<svg width="56" height="57" fill="none" xmlns="http://www.w3.org/2000/svg"><path fill-rule="evenodd" clip-rule="evenodd" d="M38.162 3.586a.628.628 0 01-.58-.386l-.8-1.938a.627.627 0 111.16-.48l.8 1.938a.626.626 0 01-.58.866zm3.943-.072a.625.625 0 01-.597-.818L42.151.7a.63.63 0 01.79-.406.63.63 0 01.404.79l-.642 1.996a.63.63 0 01-.598.434z" fill="#FBBC02"/><path fill-rule="evenodd" clip-rule="evenodd" d="M15.012 6.121h-4.769a.628.628 0 010-1.255h4.769a.628.628 0 010 1.255z" fill="#000"/><path fill-rule="evenodd" clip-rule="evenodd" d="M12.627 8.506A.628.628 0 0112 7.879v-4.77a.628.628 0 011.255 0v4.77a.628.628 0 01-.628.627z" fill="#000"/><path fill-rule="evenodd" clip-rule="evenodd" d="M45.458 44.58a2.18 2.18 0 102.178 2.178c0-1.2-.978-2.179-2.178-2.179zm0 5.611a3.437 3.437 0 01-3.433-3.433 3.437 3.437 0 013.433-3.434 3.438 3.438 0 013.434 3.434 3.438 3.438 0 01-3.434 3.433z" fill="#FBBC02"/><path fill-rule="evenodd" clip-rule="evenodd" d="M25.026 55.587a.627.627 0 01-.625-.6l-.09-1.992a.628.628 0 011.255-.056l.088 1.993a.626.626 0 01-.598.655h-.03zm-8.036-5.473a.621.621 0 01-.5-.248.625.625 0 01.118-.879l1.589-1.207a.627.627 0 11.76.999l-1.588 1.207a.627.627 0 01-.38.128zm14.928-.774a.646.646 0 01-.326-.09l-1.704-1.039a.625.625 0 01-.209-.86.625.625 0 01.861-.212l1.704 1.037a.629.629 0 01-.326 1.164z" fill="#000"/><path fill-rule="evenodd" clip-rule="evenodd" d="M20.157 42.906h-7.67c-1.79 0-3.536.544-5.01 1.566l-6.41 4.437v-25.39a2.427 2.427 0 012.427-2.426h19.429v6.713a2.43 2.43 0 002.43 2.427h7.333v10.245a2.426 2.426 0 01-2.427 2.428H20.157z" fill="#fff"/><path fill-rule="evenodd" clip-rule="evenodd" d="M1.067 49.536a.63.63 0 01-.627-.627v-25.39a3.057 3.057 0 013.054-3.054h19.429c.346 0 .627.278.627.627v6.714c0 .991.808 1.8 1.802 1.8h7.334c.346 0 .627.278.627.627v10.245a3.058 3.058 0 01-3.054 3.054h-3.494a.628.628 0 010-1.254h3.494c.991 0 1.8-.809 1.8-1.8V30.86h-6.707a3.059 3.059 0 01-3.057-3.054V21.72h-18.8a1.8 1.8 0 00-1.8 1.8v24.189l5.426-3.755a9.392 9.392 0 015.366-1.676h7.67a.628.628 0 010 1.255h-7.67a8.143 8.143 0 00-4.653 1.453l-6.41 4.437a.613.613 0 01-.357.113z" fill="#000"/><path fill-rule="evenodd" clip-rule="evenodd" d="M43.408 8.418h8.706a2.426 2.426 0 012.427 2.427v25.39l-6.41-4.436a8.782 8.782 0 00-5.01-1.566H32.687V23.52a2.426 2.426 0 00-2.427-2.427h-7.336V10.845a2.428 2.428 0 012.43-2.427h18.055z" fill="#fff"/><path fill-rule="evenodd" clip-rule="evenodd" d="M54.541 36.861a.61.61 0 01-.356-.11l-6.41-4.438a8.132 8.132 0 00-4.653-1.453H32.686a.628.628 0 01-.627-.627v-6.714c0-.994-.809-1.8-1.8-1.8h-7.336a.628.628 0 01-.628-.627V10.845a3.059 3.059 0 013.057-3.055h11.699a.628.628 0 010 1.255H25.352c-.994 0-1.802.808-1.802 1.8v9.62h6.709a3.056 3.056 0 013.054 3.054v6.086h9.809c1.927 0 3.782.58 5.366 1.677l5.426 3.754V10.844c0-.99-.808-1.8-1.8-1.8h-8.706a.628.628 0 010-1.255h8.706a3.058 3.058 0 013.055 3.056v25.389a.623.623 0 01-.627.627z" fill="#000"/><path fill-rule="evenodd" clip-rule="evenodd" d="M32.88 23.434v6.98h-7.626a2.525 2.525 0 01-2.524-2.525v-6.98h7.627a2.521 2.521 0 012.522 2.525z" fill="#FBBC02"/><path fill-rule="evenodd" clip-rule="evenodd" d="M23.357 21.537v6.353a1.9 1.9 0 001.897 1.897h6.998v-6.352a1.897 1.897 0 00-1.895-1.898h-7zm9.522 9.505h-7.625a3.154 3.154 0 01-3.152-3.152v-6.98c0-.347.279-.628.628-.628h7.627a3.154 3.154 0 013.15 3.152v6.98a.626.626 0 01-.628.628z" fill="#FBBC02"/><path fill-rule="evenodd" clip-rule="evenodd" d="M18.985 26.805H6.27a.628.628 0 010-1.255h12.715a.628.628 0 010 1.255zm0 4.895H6.27a.628.628 0 010-1.255h12.715a.628.628 0 010 1.254zm8.45 4.893h-5.27a.628.628 0 010-1.255h5.27a.628.628 0 010 1.255zm-12.549 0H6.27a.628.628 0 010-1.255h8.616a.628.628 0 010 1.255zM49.765 24.17H37.05a.624.624 0 01-.627-.628c0-.346.279-.627.627-.627h12.715a.628.628 0 010 1.255zm0-4.895H37.05a.624.624 0 01-.627-.627c0-.346.279-.628.627-.628h12.715a.628.628 0 010 1.255zM33.87 14.38H28.6a.628.628 0 010-1.255h5.27a.628.628 0 010 1.256zm15.895 0H41.15a.628.628 0 010-1.255h8.616a.628.628 0 010 1.256z" fill="#000"/></svg>
